KINDER
CUT[DEN LIEBSTEN BRUDER]
REG[Europa, Mitteleuropa, Deutschland, Saar - und Mosel - Gebiet]
KEY[K3050  16  G 3/4]
MEL[-5_  1_.11__.2_  3_.33__.
    3_  2_3_4__2__  4__3__0_
    5_  5_3_6__.5_  5_.44__.
    4_  4_2_5__.4_  4__3__0_
    5_  5_3_6__.5_  5_.44__.
    4_  4_2_5__.4_  4__3__0_ //] >>
FCT[Kinder - Lied; Trink - Lied]
